!!!SOCIAL_FUNCTION: songs connected with ceremonies
!!!SOCIAL_FUNCTION2: Bear dance
!!!PDT:	1929
!!!LING_GROUP: Caddoan
!!!LANG: Non-Tone
!!!REG: Oklahoma
!!!COM: Anon.
!!!OTL: The Hores is Shouting
!!!ODT: <1920//
!!!MPN: Tutukrawitsu [He overtook the enemy, Wicita Blain]
!!!MLC: Pawnee, Oklahoma, United States of America
!! Song was recorded either 1919 or 1920.
!!!AGN: monody
!!!AMT: irregular
!!!RWG: Transcribed pitches, durations, and meters are only approximate.
!! Drum Tempo:  MM138 changing to 120
!! Drum-rhythm: (8 8 8 8 8 8)
**kern	**silbe	**words	**words
*ICvox	*LPawnee	*LPawnee	*LEnglish
*Imale	*	*	*
*clefF4	*	*	*
*k[]	*	*	*
*M2/4	*M2/4	*M2/4	*M2/4
*MM120	*MM120	*MM120	*MM120
=1-	=1-	=1-	=1-
8e	Ti	Ti	He
8e	wa-	waka	said
4e	-ka	.	.
=2	=2	=2	=2
8.e	ra	ra	have
16e	wa-	waka	shouting
(8e	-ka	.	.
8d)	|	.	.
*M3/4	*M3/4	*M3/4	*M3/4
=3	=3	=3	=3
4c	ta	ta	going
4c	a	a	on
8.r	.	.	.
16e	ra	ra	have
*M2/4	*M2/4	*M2/4	*M2/4
=4	=4	=4	=4
(16e	i-	itawi	telling
8d)	|	.	.
16e	-ta-	.	.
(8e	-wi	.	.
8d)	|	.	.
=5	=5	=5	=5
4c	ra	ra	have
8.c	a	a	about
16d	wa-	waka	shouting
*M3/4	*M3/4	*M3/4	*M3/4
=6	=6	=6	=6
(16d	-ka	.	.
8.c)	|	.	.
4c	ta	ta	going
4c	a	a	on
=7	=7	=7	=7
(4c	a	a	about
4A)	|	.	.
8.A	we	we	now
16d	ri	ri	it
*M2/4	*M2/4	*M2/4	*M2/4
=8	=8	=8	=8
(8d	ku	ku	.
8c)	|	.	.
(8d	i-	itawi	mentioning
8c)	|	.	.
=9	=9	=9	=9
4A	-ta-	.	.
4A	-wi	.	.
=10	=10	=10	=10
4A	hu	hu	do
8.A	ra	ra	have
16c	wa-	waka	shouting
*M3/4	*M3/4	*M3/4	*M3/4
=11	=11	=11	=11
(16c	-ka	.	.
8.A)	|	.	.
4A	ta	ta	going
4A	a	a	on
*M2/4	*M2/4	*M2/4	*M2/4
=12	=12	=12	=12
4.A	a	a	and
8e	a	a	and
=13	=13	=13	=13
(8e	ki-	kiriku	something
[8d	|	.	.
8d])	|	.	.
8e	-ri-	.	.
*M3/4	*M3/4	*M3/4	*M3/4
=14	=14	=14	=14
(8e	-ku	.	.
[8d	|	.	.
8d])	|	.	.
8e	tix	tix	he
(8e	ru-	ruta	did
8d)	|	.	.
*M2/4	*M2/4	*M2/4	*M2/4
=15	=15	=15	=15
4c	-ta	.	.
8.c	ra	ra	have
16d	wa-	waka	shouting
*M3/4	*M3/4	*M3/4	*M3/4
=16	=16	=16	=16
(16d	-ka	.	.
8.c)	|	.	.
4c	ta	ta	going
4c	a	a	on
=17	=17	=17	=17
4c	ra	ra	have
4A	a	a	about
8.A	we	we	now
16d	ri	ri	it
*M2/4	*M2/4	*M2/4	*M2/4
=18	=18	=18	=18
(8d	ku	ku	.
8c)	|	.	.
(8d	i-	itawi	mentioning
8c)	|	.	.
=19	=19	=19	=19
4A	-ta-	.	.
4A	-wi	.	.
=20	=20	=20	=20
4c	hu	hu	do
8.A	ra	ra	have
16c	wa-	waka	shouting
*M3/4	*M3/4	*M3/4	*M3/4
=21	=21	=21	=21
(16c	-ka	.	.
8.A)	|	.	.
4A	ta	ta	going
4A	i-	itawi	mentioning
*M2/4	*M2/4	*M2/4	*M2/4
=22	=22	=22	=22
4A	-ta-	.	.
4A	-wi	.	.
=23	=23	=23	=23
4A	hu	hu	do
4r	.	.	.
==	==	==	==
*-	*-	*-	*-
!!!HAO:    Many years ago the Pawnee fought the Sioux, killing many.
!!!HAO: Among the Pawnee warriors was a man named Nada'kutade
!!!HAO: (Eagle Chief), father-in-law of the man who recorded the
!!!HAO: following song.  Eagle Chief owned this song and sang it
!!!HAO: in the Bear dance.  The fight with the Sioux was said to
!!!HAO: have taken place in a part of the country which was
!!!HAO: thickly wooded, the battle resulting in a victory for
!!!HAO: the Pawnee.
!!!HTX:    He said, the horse is shouting,
!!!HTX: I am telling it, the horse is shouting,
!!!HTX: Now I am telling it,
!!!HTX: The horse is shouting at something he did.
!!!CNT: Pawnee
!!!TXO: Pawnee
!!!OCY: United States
!!!OCL: Frances Densmore
!!!YOR: Frances Densmore, "Pawnee Music"
!!!YOR: Bulletin 93, page 41, No. 14
!!!PPR: Smithsonian Institution, Bureau of American Ethnology
!!!PPR: Government Printing Office
!!!PDT: 1926
!!!PPP: Washington, DC, United States of America
!!!YEC: Electronic Copyright 2000 David Huron
!!!YER: September 2000
!!!YEN: United States of America
!!!ENC: David Huron
!!!RDT: September 3, 2000
!!!EEV: Release 1.0
!!!AIN: tom, vox
